X: 25428
T: Marcha Das Burgas
R: strathspey
M: 4/4
K: Bminor
A2|:d2 cB AG FE|D3F ED EF|G3 A GE FG|A3B ADFA|
d2 cB AG FE|D3 F ED EF|G3 B AG FE|1 D2D2A2:|2 D2F2D2 FG||
|:A6B2|A6d2|c3BA2Bc|d2 cBA2 FG|
A6B2|A6d2|c3BA2Bc|1 d6FG:|2 d4d||

